src/assets/svgs/mario-mistery-block.svg

<svg xmlns="http://www.w3.org/2000/svg" viewBox="0 0 256 256">
	<g fill="#ffab55">
		<path d="M17 17v224h224V17H17z"/>
		<path d="M113 80v48h15v-15h17V80h-32z"/>
	</g>
	<g fill="#ff5501">
		<path d="M17 0v17H0v224h17V17h224V0H17z"/>
		<path d="M80 49v16H65v48h32V65h48v48h-17v15h-15v32h32v-32h32V65h-17V49H80zM113 177v31h32v-31h-32z"/>
	</g>
	<path d="M241 17v224H0v15h256V17h-15M32 32v17h17V32H32m176 0v17h17V32h-17zM97 65v48H80v15h33V80h32V65H97z"/>
	<path d="M177 80v48h-32v32h-17v17h32v-32h33V80h-16zM145 193v15h-17v17h32v-32h-15M32 208v17h17v-17H32m176 0v17h17v-17h-17z"/>
</svg>

<?xml version="1.0" standalone="yes"?>
<svg xmlns="http://www.w3.org/2000/svg" width="256" height="256">
	<path style="fill:#ff5501; stroke:none;" d="M17 0L17 17L0 17L0 241L17 241L17 17L241 17L241 0L17 0z"/>
	<path style="fill:#555555; stroke:none;" d="M241 0L241 17L256 17L256 0L241 0z"/>
	<path style="fill:#ffab55; stroke:none;" d="M17 17L17 241L241 241L241 17L17 17z"/>
	<path style="fill:#010101; stroke:none;" d="M241 17L241 241L0 241L0 256L256 256L256 17L241 17M32 32L32 49L49 49L49 32L32 32M208 32L208 49L225 49L225 32L208 32z"/>
	<path style="fill:#ff5501; stroke:none;" d="M80 49L80 65L65 65L65 113L97 113L97 65L145 65L145 113L128 113L128 128L113 128L113 160L145 160L145 128L177 128L177 65L160 65L160 49L80 49z"/>
	<path style="fill:#010101; stroke:none;" d="M97 65L97 113L80 113L80 128L113 128L113 80L145 80L145 65L97 65z"/>
	<path style="fill:#ffab55; stroke:none;" d="M113 80L113 128L128 128L128 113L145 113L145 80L113 80z"/>
	<path style="fill:#010101; stroke:none;" d="M177 80L177 128L145 128L145 160L128 160L128 177L160 177L160 145L193 145L193 80L177 80z"/>
	<path style="fill:#ff5501; stroke:none;" d="M113 177L113 208L145 208L145 177L113 177z"/>
	<path style="fill:#010101; stroke:none;" d="M145 193L145 208L128 208L128 225L160 225L160 193L145 193M32 208L32 225L49 225L49 208L32 208M208 208L208 225L225 225L225 208L208 208z"/>
</svg>
